X:339
T:Lady Dorothea Stewart Murray's Wedding March 
C:Joe Buchanan's Scottish Tome - Page 121.0
I:121 0
C:Aeneas Rose
R:March
Z:Carl Allison
L:1/8
M:6/8
K:A
{g}a | c>BA A2 A | (c>e)e e | {fg}f>ff f>ga | {g}f>ec B2 a |
c>BA A2 A | c<ee {fg}f2 e | f>ga f2 e | c<eA A2 :|
(c/d/) | e3 e>fa | f>ff {fa}f2e | e3 e>fa | {gfg}f>ec B>cd |
{c}e3 e>fa | f>ff {fa}f2 e | f>ga {gfg}f2 e | (c<e)A A>cd |
{c} e3 e>fa | f>ff {fa}f2 e | e3 e>fa | {fgf}g>ec B2 {g}a |
c>BA A2 A | c<ee {fg}f2 e | f>ga {g}f2 e | c<eA A2 |]
e | A>AA A2 {cd}c | A>ce {fa}f2 e | A>AA A>ce | {fa}f>ec {Bd}B2 e |
A>AA A2 c | A>ce {fa}f2 e | f>ga {gfg}f2e | (c<e)A A2 :|
(c/d/) | (c<e)A (c<e)A | f>ff {fa}f2 e | (c<e)A (c<e)A | {fg}f>ec B2 d |
(c<e)A (c<e)A | f>ff {fg}f2 e | f>ga {gfg}f2 e | (c<e)A A>cd |
(c<e)A (c<e)A | f>ff {fa}f2 e | (c<e)A (c<e)A | {fg}f>ec B2 {g}a |
c>BA A2 A | (c<e)e {fa}f2 e | f>ga {gfg}f2 e | (c<e)A A2 |]

